src/assets/twitter.svg

<svg width="75" height="75" viewBox="0 0 75 75" fill="none" xmlns="http://www.w3.org/2000/svg">
<path d="M67.5 0H7.5C3.375 0 0 3.375 0 7.5V67.5C0 71.625 3.375 75 7.5 75H67.5C71.625 75 75 71.625 75 67.5V7.5C75 3.375 71.625 0 67.5 0ZM58.875 27.375C58.5 44.625 47.625 56.625 31.125 57.375C24.375 57.75 19.5 55.5 15 52.875C19.875 53.6251 26.25 51.7502 29.625 48.75C24.75 48.375 21.75 45.75 20.25 41.625C21.75 42 23.25 41.625 24.375 41.625C19.875 40.125 16.875 37.5 16.5 31.5C17.625 32.25 19.125 32.625 20.625 32.625C17.25 30.75 15 23.625 17.625 19.125C22.5 24.375 28.5 28.875 38.25 29.625C35.625 19.125 49.8751 13.5 55.5001 20.625C58.1251 20.25 60.0002 19.125 61.8752 18.375C61.1252 21 59.6251 22.5 57.7501 24C59.6251 23.625 61.5001 23.25 63.0001 22.5C62.625 24.375 60.75 25.875 58.875 27.375Z" fill="#99154E"/>
</svg>

<svg width="75" height="75" fill="none" xmlns="http://www.w3.org/2000/svg"><path d="M67.5 0h-60C3.375 0 0 3.375 0 7.5v60C0 71.625 3.375 75 7.5 75h60c4.125 0 7.5-3.375 7.5-7.5v-60C75 3.375 71.625 0 67.5 0Zm-8.625 27.375c-.375 17.25-11.25 29.25-27.75 30-6.75.375-11.625-1.875-16.125-4.5 4.875.75 11.25-1.125 14.625-4.125-4.875-.375-7.875-3-9.375-7.125 1.5.375 3 0 4.125 0-4.5-1.5-7.5-4.125-7.875-10.125 1.125.75 2.625 1.125 4.125 1.125-3.375-1.875-5.625-9-3-13.5 4.875 5.25 10.875 9.75 20.625 10.5-2.625-10.5 11.625-16.125 17.25-9 2.625-.375 4.5-1.5 6.375-2.25C61.125 21 59.625 22.5 57.75 24c1.875-.375 3.75-.75 5.25-1.5-.375 1.875-2.25 3.375-4.125 4.875Z" fill="#99154E"/></svg>
